src/assets/images/login-logo.svg

<svg height="22" viewBox="0 0 22 22" width="22" xmlns="http://www.w3.org/2000/svg"><g fill="#084ff7" fill-rule="evenodd"><path d="m11.1758565 2.43299776c-.6212608.34844721-1.38982607 1.11317267-1.9259565 1.69345342.7714348-.81211429 2.8207826-1.45372174 4.7046522.76379627 1.0904348 1.28275031 2.1316087 2.66585342 4.2971739 7.04792545 0 0 .8814348 2.1928944.8814348 3.3906236-.0028696 2.3327379-1.186087 3.9913466-2.5046522 4.734236 3.1842609-1.783585 5.3249565-5.125426 5.325913-8.9504472-.0023913-1.8778981-.5155652-3.63639499-1.4170869-5.15330182-.9383478-1.57730435-2.2932609-2.89118261-3.9164783-3.80132671-.6413478-.35077019-1.4543913-.56866584-2.3573478-.56866584-.9608261 0-2.0225652.24670062-3.0876522.84370683"/><path d="m10.9817783.21004398c-1.80400004 0-3.63143482.44647701-5.30630439 1.38542608-3.46786956 1.9448-5.37947826 5.50128447-5.31491304 9.13303354.13726087 1.170318.90678261 4.1757913 5.13843478 4.9535255-1.0693913-.4083802-2.31334782-1.7896249-1.37069565-4.24641.59926087-1.55732668 1.309-3.12626829 4.13504348-7.13805711 0 0 1.51417391-1.83794286 2.58165222-2.43727205 2.0885652-1.16985342 4.1661304-.99609441 5.489-.25181118-1.6246522-.91479006-3.4755218-1.39843478-5.3522174-1.39843478"/><path d="m14.8643 16.3681913c-1.6887391.2759702-3.4439565.4604149-8.43173913.0910609 0 0-2.39608696-.354487-3.46308696-.9538162-2.08378261-1.1693888-2.96952174-2.9985043-2.96952174-4.481031-.0023913 3.5718161 1.90395653 7.0479254 5.31826087 8.9629913 3.40665218 1.9104198 7.44843476 1.7794037 10.62934786 0 4.0250434-2.6351901 1.9293043-7.260246 1.9293043-7.260246.3768696 1.0365143-.0358695 3.1546087-3.0125652 3.641041z"/></g></svg>

<?xml version="1.0" encoding="UTF-8"?>
<svg width="22px" height="22px" viewBox="0 0 22 22" version="1.1" xmlns="http://www.w3.org/2000/svg" xmlns:xlink="http://www.w3.org/1999/xlink">
    <!-- Generator: Sketch 50 (54983) - http://www.bohemiancoding.com/sketch -->
    <title>logo</title>
    <desc>Created with Sketch.</desc>
    <defs></defs>
    <g id="🔥企业开源软件管理" stroke="none" stroke-width="1" fill="none" fill-rule="evenodd">
        <g id="登录界面" transform="translate(-987.000000, -249.000000)" fill="#084FF7">
            <g id="Group-2" transform="translate(913.000000, 249.000000)">
                <g id="Group-7" transform="translate(74.000000, 0.000000)">
                    <g id="logo">
                        <path d="M11.1758565,2.43299776 C10.5545957,2.78144497 9.78603043,3.54617043 9.2499,4.12645118 C10.0213348,3.31433689 12.0706826,2.67272944 13.9545522,4.89024745 C15.044987,6.17299776 16.0861609,7.55610087 18.2517261,11.9381729 C18.2517261,11.9381729 19.1331609,14.1310673 19.1331609,15.3287965 C19.1302913,17.6615344 17.9470739,19.3201431 16.6285087,20.0630325 C19.8127696,18.2794475 21.9534652,14.9376065 21.9544217,11.1125853 C21.9520304,9.2346872 21.4388565,7.47619031 20.5373348,5.95928348 C19.598987,4.38197913 18.2440739,3.06810087 16.6208565,2.15795677 C15.9795087,1.80718658 15.1664652,1.58929093 14.2635087,1.58929093 C13.3026826,1.58929093 12.2409435,1.83599155 11.1758565,2.43299776" id="Fill-1"></path>
                        <path d="M10.9817783,0.210043975 C9.17777826,0.210043975 7.35034348,0.656520994 5.67547391,1.59547006 C2.20760435,3.54027006 0.295995652,7.09675453 0.36056087,10.7285036 C0.497821739,11.8988216 1.26734348,14.9042949 5.49899565,15.6820291 C4.42960435,15.2736489 3.18564783,13.8924042 4.1283,11.4356191 C4.72756087,9.87829242 5.4373,8.30935081 8.26334348,4.29756199 C8.26334348,4.29756199 9.77751739,2.45961913 10.8449957,1.86028994 C12.9335609,0.690436522 15.0111261,0.864195528 16.3339957,1.60847876 C14.7093435,0.693688696 12.8584739,0.210043975 10.9817783,0.210043975" id="Fill-3"></path>
                        <path d="M14.8643,16.3681913 C13.1755609,16.6441615 11.4203435,16.8286062 6.43256087,16.4592522 C6.43256087,16.4592522 4.03647391,16.1047652 2.96947391,15.505436 C0.885691304,14.3360472 -4.7826087e-05,12.5069317 -4.7826087e-05,11.024405 C-0.00243913043,14.5962211 1.9039087,18.0723304 5.31821304,19.9873963 C8.72486522,21.8978161 12.7666478,21.7668 15.9475609,19.9873963 C19.9726043,17.3522062 17.8768652,12.7271503 17.8768652,12.7271503 C18.2537348,13.7636646 17.8409957,15.881759 14.8643,16.3681913 Z" id="Fill-5"></path>
                    </g>
                </g>
            </g>
        </g>
    </g>
</svg>
